X:1
T:Amante sdegnato-Non ardu chiu
T:Giovanni Stefani
T:Source : Affetti amorosi-Canzonette ad una voce sola---Venetia---A.Vincenti---1621. Editor : André Vierendeels (02/11/15).
T:Notes : Original clefs : C3, C3 Alfabetto et intavolatura per la chitarra alla Spagnola Terza impressione (first print 1618)
T:Non ardu chiu-Amante sdegnato 
T:Aria Siciliana
C:Giovanni Stefani
%%score 1 { ( 2 3 ) | 4 }
L:1/8
Q:1/4=120
M:4/4
K:C
V:1 treble-8 nm="Tenor" snm="T"
V:2 treble nm="BC" snm="BC"
V:3 treble 
V:4 bass 
V:1
 z4 f4 | f3 f f2 g2 | a6 a2 | d4- de ^c2 | d8- | d8 | z4 e4 | e2 e2 e2 e2 | e2 ^c2 d2 d2 | e4 e4 | %10
w: Non|ar- du chiu non|ar- du|co- _ m'ar- di-|a,|_|per-|lu tu'a- mur in-|gra- ta scan- nu-|scen- ti,|
w: Mi|pas- sau, mi pas-|sau la|fan- * ta- si-|a,|_|mi|di- xi- sti di'lu-|co- ri'e di la|men- ti,|
 z2 e2 e2 e2 | c2 cc B2 BB | A4 A4 | z BBB c2 A2 | B8 | c4 cd B2 | c8- | c8 | z BBc d4 | d8- | %20
w: sa- nau la|chia- ga ch'a- mu- ri per|ti- a,|mi fi- ci cu- li|so|stra- li pun- gen-|ti,|_|stra- li pun- gen-|ti.|
w: sde- gno'u pie-|tu- su di la mor- te|mi- a,|mi li- bi- rau di|li|toi tra- di- men-|ti,|_|toi tra- di- men-|ti.|
 d8 |] %21
w: _|
w: _|
V:2
 A8- | A8 | d8 | d6 ^c2 | d8 | A8 | ^c8 | ^c8 | A6 A2 | ^G4 G4 | B8 | A4 ^G4 | E8 | B4 G2 ^F2 | %14
 G8 | A6 G2 | G8- | G8 | G4 A4 | B2 c2 d2 ^c2 | A8 |] %21
V:3
 F8- | F8 | F4 A4 | F6 E2 | A8 | ^F8 | E8 | A8 | E4 F2 D2 | B,4 E4 | ^G8 | E4 E4 | ^C8 | D4 E2 D2 | %14
 D8 | F6 D2 | E8- | E8 | D4 G2 ^F2 | D2 G2 E4 | ^F8 |] %21
V:4
 D,8 | D,8 | D,8 | _B,4 G,2 A,2 | D,8- | D,8 | A,8 | A,8 | A,8 | E,8 | E,8 | A,4 E,4 | A,8 | %13
 G,4 C,2 D,2 | G,8 | F,8- | F,4 G,4 | C,8 | G,8 | G,4 A,4 | D,8 |] %21

